src/icons/services.svg

<svg viewBox="0 0 24 24" fill="none" xmlns="http://www.w3.org/2000/svg">
<g opacity="0.8">
<path fill-rule="evenodd" clip-rule="evenodd" d="M13.3688 3.24087L19.1398 6.68508C19.6732 7.00436 20.0005 7.58802 20 8.21865V15.5288C20.0006 16.1673 19.6648 16.7569 19.1208 17.073L13.3515 20.4172C12.8234 20.7237 12.176 20.7237 11.6479 20.4172L5.87865 17.073C5.33577 16.7583 5 16.1683 5 15.5288V8.21865C4.99934 7.58814 5.32648 7.00451 5.85962 6.68508L11.6265 3.24087C12.1646 2.91971 12.8308 2.91971 13.3688 3.24087ZM18.5531 16.0436C18.7342 15.9388 18.8462 15.7418 18.8462 15.5288V8.21865C18.8462 8.00805 18.7371 7.81334 18.5594 7.70804L12.7879 4.26325C12.6087 4.15618 12.3867 4.15618 12.2075 4.26325L6.44058 7.70746C6.26289 7.81334 6.15385 8.00805 6.15385 8.21865V15.5288C6.15366 15.7417 6.26557 15.9382 6.44692 16.0436L12.2162 19.3878C12.3921 19.4901 12.6079 19.4901 12.7838 19.3878L18.5531 16.0436ZM12.5 8.29394C10.5882 8.29394 9.03846 9.87415 9.03846 11.8234C9.03846 13.7727 10.5882 15.353 12.5 15.353C14.4118 15.353 15.9615 13.7727 15.9615 11.8234C15.9615 9.87415 14.4118 8.29394 12.5 8.29394ZM10.1923 11.8234C10.1923 13.123 11.2255 14.1765 12.5 14.1765C13.7745 14.1765 14.8077 13.123 14.8077 11.8234C14.8077 10.5239 13.7745 9.47044 12.5 9.47044C11.2255 9.47044 10.1923 10.5239 10.1923 11.8234Z" fill="black"/>
</g>
</svg>

<svg viewBox="0 0 24 24" fill="currentColor" xmlns="http://www.w3.org/2000/svg"><path fill-rule="evenodd" clip-rule="evenodd" d="m13.369 3.24 5.77 3.445c.534.32.861.903.861 1.534v7.31c0 .638-.335 1.228-.88 1.544l-5.769 3.344a1.693 1.693 0 0 1-1.703 0l-5.77-3.344A1.782 1.782 0 0 1 5 15.529v-7.31c0-.63.326-1.214.86-1.534l5.766-3.444a1.696 1.696 0 0 1 1.743 0zm5.184 12.804a.594.594 0 0 0 .293-.515v-7.31c0-.21-.109-.406-.287-.511l-5.771-3.445a.565.565 0 0 0-.58 0L6.44 7.707a.594.594 0 0 0-.287.512v7.31c0 .213.112.41.293.515l5.77 3.344a.563.563 0 0 0 .567 0l5.77-3.344zM12.5 8.294c-1.912 0-3.462 1.58-3.462 3.53 0 1.949 1.55 3.529 3.462 3.529 1.912 0 3.461-1.58 3.461-3.53 0-1.949-1.55-3.53-3.461-3.53zm-2.308 3.53c0 1.299 1.034 2.353 2.308 2.353 1.274 0 2.308-1.054 2.308-2.354S13.774 9.47 12.5 9.47c-1.274 0-2.308 1.054-2.308 2.353z" fill="#000" opacity=".8"/></svg>
